svgs/regular/message-medical.svg

<svg xmlns="http://www.w3.org/2000/svg" viewBox="0 0 512 512"><!-- Font Awesome Pro 6.0.0-alpha2 by @fontawesome - https://fontawesome.com License - https://fontawesome.com/license (Commercial License) --><path d="M336 176H288V128C288 119.199 280.801 112 272 112H240C231.199 112 224 119.199 224 128V176H176C167.199 176 160 183.195 160 191.996V224C160 232.797 167.199 239.996 176 239.996H224V287.996C224 296.797 231.199 304 240 304H272C280.801 304 288 296.797 288 287.996V239.996H336C344.801 239.996 352 232.797 352 224V191.996C352 183.195 344.801 176 336 176ZM448 0H64C28.75 0 0 28.75 0 64V352.002C0 387.252 28.75 416.002 64 416.002H160V500.002C160 509.838 171.023 515.479 179.125 509.627L304 416.002H448C483.25 416.002 512 387.252 512 352.002V64C512 28.75 483.25 0 448 0ZM464 352.002C464 360.752 456.75 368.002 448 368.002H288L208 428.002V368.002H64C55.25 368.002 48 360.752 48 352.002V64C48 55.25 55.25 48 64 48H448C456.75 48 464 55.25 464 64V352.002Z"/></svg>

<svg xmlns="http://www.w3.org/2000/svg" viewBox="0 0 512 512"><!--! Font Awesome Pro 6.4.0 by @fontawesome - https://fontawesome.com License - https://fontawesome.com/license (Commercial License) Copyright 2023 Fonticons, Inc. --><path d="M208 416c0-26.5-21.5-48-48-48H64c-8.8 0-16-7.2-16-16V64c0-8.8 7.2-16 16-16H448c8.8 0 16 7.2 16 16V352c0 8.8-7.2 16-16 16H309.3c-10.4 0-20.5 3.4-28.8 9.6L208 432V416zm-.2 76.2l.2-.2 101.3-76H448c35.3 0 64-28.7 64-64V64c0-35.3-28.7-64-64-64H64C28.7 0 0 28.7 0 64V352c0 35.3 28.7 64 64 64h48 48v48 4 .3 6.4V496c0 6.1 3.4 11.6 8.8 14.3s11.9 2.1 16.8-1.5L202.7 496l5.1-3.8zM224 128v48H176c-8.8 0-16 7.2-16 16v32c0 8.8 7.2 16 16 16h48v48c0 8.8 7.2 16 16 16h32c8.8 0 16-7.2 16-16V240h48c8.8 0 16-7.2 16-16V192c0-8.8-7.2-16-16-16H288V128c0-8.8-7.2-16-16-16H240c-8.8 0-16 7.2-16 16z"/></svg>
